X:381
T:Leouk??,The. RH.381
R:Waltz
S:Rev.R.Harrison’s MS,c1815,Cumbria
N:I converted the first 3 notes to triplets. PJH.
O:England
A:Temple Sowerby,Cumbria
Z:vmp.Simon Wilson. Review PJH, 2008.
M:3/8
L:1/8
Q:3/8=50
K:D
((3A/B/c/)|ded|Agf|ege|ce/c/A|\
ded|Aaf|egc|d2:|!
|:c/d/|ecA|fdA|gee|afd|\
e/c/e/c/A|f/d/f/d/A|gec|d2:|!
|:a|d’c’b|aff|gee|fdA|\
d’c’b|aff|gec|d2:|!
|:a|afb|g2e|c2a|f2d|\
afb|g2e|c2a|d2:|

